X:1
T:Captain Ward and the Rainbow
M:6/8
L:1/8
K:G
 D| G2- G G2 E| E2- E D2 D| G2- DG-A B| c3 zB-c| d2 Bc-B A| G2- E D2 D|\
 D2 DD-E F| G3 z2 D| G2- G G2 E| E2 E D2 D| G2 DG-A B| c3 z Bc| d2 Bc-B-A|\
 G2 E D2 D| D2 DD-E F| G3 z2||

